X:113 
T:Kilkenny Jig, The 
B:CRE3.018 (Port Chill Chainnigh)
F:file ID: cre.3/113kilk
R:jig
Q:160
M:6/8
L:1/8
K:G
"A dorian"
B|cBA dcB|AEF GAB|cBA dBB|ABA A2B|
cBA dcB|AEF GAB|c2e dBG|ABA A2:|
f|g3 agf|g2e edB|a2e a2e|a2e edB|
g3 agf|g2e edB|c2e dBG|ABA A2:| 

%%%

